X:369
T:Waiting for the Boatsman
M:C|
L:1/8
Q:220
K:D
DF||:A2AB AF2A | Bd2B A2 DF | A2 A2 BAGF |E2EF E2DF |
A2AB AF2A | Bd2B A2 cd | e2ed cABc |d6FG:|
||:A2f4ed |A2d4 cd |e2ed cdcB |A2AB A2FG |
A2f4ed |A2d4cd | e2e/f/e/d/ cABc | d6DF:||